src/assets/icons/linkedin.svg

<svg fill="none" height="30" viewBox="0 0 30 30" width="30" xmlns="http://www.w3.org/2000/svg"><path d="m25.88.719971h-21.76c-1.8768 0-3.399999 1.523199-3.399999 3.399999v21.76003c0 1.8768 1.523199 3.4 3.399999 3.4h21.76c1.8768 0 3.4-1.5232 3.4-3.4v-21.76003c0-1.8768-1.5232-3.399999-3.4-3.399999zm-16.32 10.880029v12.92h-4.08v-12.92zm-4.08-3.76043c0-.952.816-1.6796 2.04-1.6796s1.9924.7276 2.04 1.6796c0 .952-.7616 1.7204-2.04 1.7204-1.224 0-2.04-.7684-2.04-1.7204zm19.04 16.68043h-4.08s0-6.2968 0-6.8c0-1.36-.68-2.72-2.38-2.7472h-.0544c-1.6456 0-2.3256 1.4008-2.3256 2.7472v6.8h-4.08v-12.92h4.08v1.7408s1.3124-1.7408 3.9508-1.7408c2.6996 0 4.8892 1.8564 4.8892 5.6168z" fill="#000"/></svg>

<svg width="30" height="30" viewBox="0 0 30 30" fill="none" xmlns="http://www.w3.org/2000/svg">
<path d="M25.88 0.719971H4.12C2.2432 0.719971 0.720001 2.24317 0.720001 4.11997V25.88C0.720001 27.7568 2.2432 29.28 4.12 29.28H25.88C27.7568 29.28 29.28 27.7568 29.28 25.88V4.11997C29.28 2.24317 27.7568 0.719971 25.88 0.719971ZM9.56 11.6V24.52H5.48V11.6H9.56ZM5.48 7.83957C5.48 6.88757 6.296 6.15997 7.52 6.15997C8.744 6.15997 9.5124 6.88757 9.56 7.83957C9.56 8.79157 8.7984 9.55997 7.52 9.55997C6.296 9.55997 5.48 8.79157 5.48 7.83957ZM24.52 24.52H20.44C20.44 24.52 20.44 18.2232 20.44 17.72C20.44 16.36 19.76 15 18.06 14.9728H18.0056C16.36 14.9728 15.68 16.3736 15.68 17.72C15.68 18.3388 15.68 24.52 15.68 24.52H11.6V11.6H15.68V13.3408C15.68 13.3408 16.9924 11.6 19.6308 11.6C22.3304 11.6 24.52 13.4564 24.52 17.2168V24.52Z" fill="black"/>
</svg>
